static/icons/fork.svg

<svg xmlns="http://www.w3.org/2000/svg" width="24" height="24" viewBox="0 0 24 24">
  <path fill-rule="evenodd" d="M10,19 C10,18.4479167 9.55208333,18 9,18 C8.44791667,18 8,18.4479167 8,19 C8,19.5520833 8.44791667,20 9,20 C9.55208333,20 10,19.5520833 10,19 Z M10,7 C10,6.44791667 9.55208333,6 9,6 C8.44791667,6 8,6.44791667 8,7 C8,7.55208333 8.44791667,8 9,8 C9.55208333,8 10,7.55208333 10,7 Z M16.6666667,8.33333333 C16.6666667,7.78125 16.21875,7.33333333 15.6666667,7.33333333 C15.1145833,7.33333333 14.6666667,7.78125 14.6666667,8.33333333 C14.6666667,8.88541667 15.1145833,9.33333333 15.6666667,9.33333333 C16.21875,9.33333333 16.6666667,8.88541667 16.6666667,8.33333333 Z M17.6666667,8.33333333 C17.6666667,9.07291667 17.2604167,9.71875 16.6666667,10.0625 C16.6354167,13.8229167 13.96875,14.65625 12.1979167,15.21875 C10.5416667,15.7395833 10,15.9895833 10,17 L10,17.2708333 C10.59375,17.6145833 11,18.2604167 11,19 C11,20.1041667 10.1041667,21 9,21 C7.89583333,21 7,20.1041667 7,19 C7,18.2604167 7.40625,17.6145833 8,17.2708333 L8,8.72916667 C7.40625,8.38541667 7,7.73958333 7,7 C7,5.89583333 7.89583333,5 9,5 C10.1041667,5 11,5.89583333 11,7 C11,7.73958333 10.59375,8.38541667 10,8.72916667 L10,13.90625 C10.53125,13.6458333 11.09375,13.46875 11.6041667,13.3125 C13.5416667,12.6979167 14.6458333,12.2395833 14.6666667,10.0625 C14.0729167,9.71875 13.6666667,9.07291667 13.6666667,8.33333333 C13.6666667,7.22916667 14.5625,6.33333333 15.6666667,6.33333333 C16.7708333,6.33333333 17.6666667,7.22916667 17.6666667,8.33333333 Z"/>
</svg>

<svg xmlns="http://www.w3.org/2000/svg" width="24" height="24">
    <path fill-rule="evenodd" d="M10 19a1 1 0 1 0-2 0 1 1 0 0 0 2 0zm0-12a1 1 0 1 0-2 0 1 1 0 0 0 2 0zm6.667 1.333a1 1 0 1 0-2 0 1 1 0 0 0 2 0zm1 0a2 2 0 0 1-1 1.73c-.032 3.76-2.698 4.593-4.47 5.156-1.655.52-2.197.77-2.197 1.781v.27A2 2 0 0 1 11 19a2 2 0 0 1-4 0 2 2 0 0 1 1-1.73V8.73A2 2 0 0 1 7 7a2 2 0 0 1 4 0 2 2 0 0 1-1 1.73v5.176c.531-.26 1.094-.437 1.604-.594 1.938-.614 3.042-1.072 3.063-3.25a2 2 0 0 1-1-1.729 2 2 0 0 1 4 0z"/>
</svg>
